X:155
T:Waterloo. CJF.155
R:Quadrille
S:C.J.Fox MS, 1829/33, Beverley,E.Yorks.
N:I added a rest at * to make the tune scan. – PJH.
B:Kidson Coll.Mitchell Lib.M1805
O:England
A:East Yorkshire
Z:vmp.P J Headford 2000 & 2008
M:6/8
L:1/8
Q:3/8=120
K:F
c|c2d A2B|{d}c2c caf|ebg ecG|BAA A2B|\
c2d A2B|{d}c2c caf|dBG EcE|G3F”*”zh||!
F|E2G c2B|A2c F2c|^cdA ^cBG|F3 E2F|\
E2G c2B|A2c Fag|geg fd=B|d3 c2||!
A|d2f afd|{d}^c2c c2b|bag gfe|gef e2A|\
d2f d2A|B2^F GAB|Ac=F ” D Capo”AGE|D3z2|]

